lib/healthicons/icons/solid/body/bacteria.svg

<svg fill="none" height="48" viewBox="0 0 48 48" width="48" xmlns="http://www.w3.org/2000/svg"><path clip-rule="evenodd" d="m20.9525 10.4616c-1.2405-1.37877-2.9899-2.29065-4.9525-2.43995v-3.02165h-2v3.13723c-2.098.40868-3.8803 1.7003-4.94448 3.47237l-2.55552-1.4754-1 1.732 2.76322 1.5954c-.1716.6265-.26322 1.286-.26322 1.967 0 2.0151.24257 3.9735.7001 5.8477l-2.95895.7928.51764 1.9319 2.99502-.8025c.86889 2.6089 2.16349 5.0233 3.80119 7.1608l-2.7621 2.7621 1.4143 1.4142 2.6331-2.6331c1.5498 1.7141 3.338 3.2085 5.3122 4.4312l-1.5186 2.6302 1.7321 1 1.5284-2.6473c2.6295 1.3454 5.5335 2.231 8.6056 2.5505v3.1329h2v-3.0065c.19.0043.3804.0065.5714.0065 2.2973 0 4.3511-1.0428 5.7137-2.6809l2.679 1.5467 1-1.732-2.6176-1.5113c.4198-.9308.6535-1.9636.6535-3.0511 0-2.7316-1.4744-5.1189-3.6708-6.4094l1.5369-2.662-1.7321-1-1.6668 2.887c-.6052-.1593-1.2406-.2441-1.8958-.2441-2.3223 0-4.4543-.815-6.1256-2.1744l2.2613-2.2613-1.4143-1.4142-2.2612 2.2612c-1.3595-1.6713-2.1745-3.8033-2.1745-6.1256 0-1.1778-.2741-2.2916-.762-3.2811l2.4403-2.44032-1.4142-1.41421zm-5.9525 4.5384c-.5523 0-1 .4477-1 1s.4477 1 1 1 1-.4477 1-1-.4477-1-1-1zm-3 1c0-1.6569 1.3431-3 3-3s3 1.3431 3 3-1.3431 3-3 3-3-1.3431-3-3zm12 13c-.5523 0-1 .4477-1 1s.4477 1 1 1 1-.4477 1-1-.4477-1-1-1zm-3 1c0-1.6569 1.3431-3 3-3s3 1.3431 3 3-1.3431 3-3 3-3-1.3431-3-3zm-4-4c1.1046 0 2-.8954 2-2s-.8954-2-2-2-2 .8954-2 2 .8954 2 2 2zm17 6c0 1.1046-.8954 2-2 2s-2-.8954-2-2 .8954-2 2-2 2 .8954 2 2z" fill="#333" fill-rule="evenodd"/></svg>

<svg width="48" height="48" viewBox="0 0 48 48" fill="none" xmlns="http://www.w3.org/2000/svg">
<path fill-rule="evenodd" clip-rule="evenodd" d="M20.9525 10.4616C19.712 9.08283 17.9626 8.17095 16 8.02165V5H14V8.13723C11.902 8.54591 10.1197 9.83753 9.05552 11.6096L6.5 10.1342L5.5 11.8662L8.26322 13.4616C8.09162 14.0881 8 14.7476 8 15.4286C8 17.4437 8.24257 19.4021 8.7001 21.2763L5.74115 22.0691L6.25879 24.001L9.25381 23.1985C10.1227 25.8074 11.4173 28.2218 13.055 30.3593L10.2929 33.1214L11.7072 34.5356L14.3403 31.9025C15.8901 33.6166 17.6783 35.111 19.6525 36.3337L18.1339 38.9639L19.866 39.9639L21.3944 37.3166C24.0239 38.662 26.9279 39.5476 30 39.8671V43H32V39.9935C32.19 39.9978 32.3804 40 32.5714 40C34.8687 40 36.9225 38.9572 38.2851 37.3191L40.9641 38.8658L41.9641 37.1338L39.3465 35.6225C39.7663 34.6917 40 33.6589 40 32.5714C40 29.8398 38.5256 27.4525 36.3292 26.162L37.8661 23.5L36.134 22.5L34.4672 25.387C33.862 25.2277 33.2266 25.1429 32.5714 25.1429C30.2491 25.1429 28.1171 24.3279 26.4458 22.9685L28.7071 20.7072L27.2928 19.293L25.0316 21.5542C23.6721 19.8829 22.8571 17.7509 22.8571 15.4286C22.8571 14.2508 22.583 13.137 22.0951 12.1475L24.5354 9.70718L23.1212 8.29297L20.9525 10.4616ZM15 15C14.4477 15 14 15.4477 14 16C14 16.5523 14.4477 17 15 17C15.5523 17 16 16.5523 16 16C16 15.4477 15.5523 15 15 15ZM12 16C12 14.3431 13.3431 13 15 13C16.6569 13 18 14.3431 18 16C18 17.6569 16.6569 19 15 19C13.3431 19 12 17.6569 12 16ZM24 29C23.4477 29 23 29.4477 23 30C23 30.5523 23.4477 31 24 31C24.5523 31 25 30.5523 25 30C25 29.4477 24.5523 29 24 29ZM21 30C21 28.3431 22.3431 27 24 27C25.6569 27 27 28.3431 27 30C27 31.6569 25.6569 33 24 33C22.3431 33 21 31.6569 21 30ZM17 26C18.1046 26 19 25.1046 19 24C19 22.8954 18.1046 22 17 22C15.8954 22 15 22.8954 15 24C15 25.1046 15.8954 26 17 26ZM34 32C34 33.1046 33.1046 34 32 34C30.8954 34 30 33.1046 30 32C30 30.8954 30.8954 30 32 30C33.1046 30 34 30.8954 34 32Z" fill="#333333"/>
</svg>
